z_dist/img/icons/interface/tag_usd.svg

<svg width="64" height="64" viewBox="0 0 64 64" fill="none" xmlns="http://www.w3.org/2000/svg">
<path d="M36 8L8 36L28 56L56 28V8H36Z" stroke="#111111" stroke-width="2" stroke-miterlimit="5"/>
<path d="M44 24C46.2091 24 48 22.2091 48 20C48 17.7909 46.2091 16 44 16C41.7909 16 40 17.7909 40 20C40 22.2091 41.7909 24 44 24Z" stroke="#111111" stroke-width="2" stroke-miterlimit="5"/>
<path d="M28.7206 32.7117C28.0397 32.0284 27.6581 31.1025 27.6597 30.1378C27.6614 29.1731 28.0463 28.2486 28.7296 27.5676C29.4129 26.8866 30.3388 26.505 31.3035 26.5067C32.2682 26.5084 33.1928 26.8932 33.8737 27.5765" stroke="#111111" stroke-width="2" stroke-miterlimit="5"/>
<path d="M31.2881 35.2883C31.9691 35.9717 32.3507 36.8975 32.349 37.8623C32.3473 38.827 31.9625 39.7515 31.2791 40.4325C30.5958 41.1134 29.6699 41.495 28.7052 41.4934C27.7405 41.4917 26.816 41.1068 26.135 40.4235" stroke="#111111" stroke-width="2" stroke-miterlimit="5"/>
<path d="M37.7339 26.2974L35.1573 28.8649" stroke="#111111" stroke-width="2" stroke-miterlimit="5"/>
<path d="M24.8513 39.135L22.2748 41.7026" stroke="#111111" stroke-width="2" stroke-miterlimit="5"/>
<path d="M28.7207 32.7122L31.2883 35.2887" stroke="#111111" stroke-width="2" stroke-miterlimit="5"/>
<path d="M37.7207 34.0135C37.7207 34.0135 37.7252 31.4415 36.4414 30.1532L33.8738 27.5767" stroke="#111111" stroke-width="2" stroke-miterlimit="5"/>
<path d="M22.2883 33.9868C22.2883 33.9868 22.2838 36.5589 23.5676 37.8472L26.1352 40.4237" stroke="#111111" stroke-width="2" stroke-miterlimit="5"/>
</svg>

<svg width="64" height="64" fill="none" xmlns="http://www.w3.org/2000/svg"><path d="M36 8L8 36l20 20 28-28V8H36z" stroke="#111" stroke-width="2" stroke-miterlimit="5"/><path d="M44 24a4 4 0 100-8 4 4 0 000 8zm-15.28 8.712a3.638 3.638 0 015.154-5.136m-2.586 7.712a3.637 3.637 0 11-5.153 5.136m11.599-14.127l-2.577 2.568m-10.306 10.27l-2.576 2.568m6.445-8.991l2.568 2.577m6.432-1.275s.005-2.573-1.279-3.86l-2.567-2.577m-11.586 6.41s-.004 2.572 1.28 3.86l2.567 2.577" stroke="#111" stroke-width="2" stroke-miterlimit="5"/></svg>
